img/manages-icon2.svg

<svg width="95" height="86" viewBox="0 0 95 86" fill="none" xmlns="http://www.w3.org/2000/svg">
<g clip-path="url(#clip0)">
<path d="M34.9994 16C22.134 16 11.666 26.4679 11.666 39.3334C11.666 45.5255 15.5451 50.7375 18.9664 55.34C19.5526 56.1275 20.133 56.9063 20.6873 57.6821C21.7519 59.1668 22.4751 60.8205 22.8981 62.7337C23.6506 66.1287 26.506 68.5 29.8428 68.5L40.1561 68.5C43.4928 68.5 46.3483 66.1316 47.1008 62.7337C47.5237 60.8204 48.247 59.1696 49.3117 57.6821C49.8658 56.9063 50.4463 56.1275 51.0325 55.34C54.4538 50.7375 58.3329 45.5254 58.3329 39.3334C58.3328 26.4679 47.8648 16 34.9994 16ZM48.6903 53.5988C48.0924 54.4009 47.5031 55.1941 46.9374 55.9846C45.657 57.7755 44.7528 59.8318 44.2512 62.1038C43.799 64.1541 42.1133 65.5834 40.1561 65.5834L29.8428 65.5834C27.8856 65.5834 26.1999 64.1543 25.7478 62.1038C25.2462 59.8288 24.339 57.7725 23.0615 55.9846C22.4956 55.1971 21.9065 54.4009 21.3087 53.5988C18.0012 49.1537 14.5828 44.56 14.5828 39.3334C14.5828 28.078 23.7412 18.9168 34.9994 18.9168C46.2576 18.9168 55.416 28.078 55.416 39.3334C55.416 44.56 51.9978 49.1537 48.6903 53.5988Z" fill="#36A2F4"/>
<path d="M42.2916 71.4165L27.7084 71.4165C26.9034 71.4165 26.25 72.0699 26.25 72.8749C26.25 73.6799 26.9034 74.3333 27.7084 74.3333L42.2918 74.3333C43.0968 74.3333 43.7501 73.6799 43.7501 72.8749C43.75 72.0699 43.0966 71.4165 42.2916 71.4165Z" fill="#36A2F4"/>
<path d="M42.2916 77.25L27.7084 77.25C26.9034 77.25 26.25 77.9034 26.25 78.7084C26.25 79.5134 26.9034 80.1668 27.7084 80.1668L42.2918 80.1668C43.0968 80.1668 43.7501 79.5134 43.7501 78.7084C43.7501 77.9034 43.0966 77.25 42.2916 77.25Z" fill="#36A2F4"/>
<path d="M39.3744 83.0835L30.6244 83.0835C29.8194 83.0835 29.166 83.7369 29.166 84.5419C29.166 85.3469 29.8194 86.0002 30.6244 86.0002L39.3744 86.0002C40.1794 86.0002 40.8328 85.3469 40.8328 84.5419C40.8328 83.7367 40.1794 83.0835 39.3744 83.0835Z" fill="#36A2F4"/>
</g>
<defs>
<clipPath id="clip0">
<rect width="70" height="70" fill="white" transform="translate(0 16)"/>
</clipPath>
</defs>
</svg>

<svg width="95" height="86" fill="none" xmlns="http://www.w3.org/2000/svg"><g clip-path="url(#clip0)" fill="#36A2F4"><path d="M35 16c-12.866 0-23.334 10.468-23.334 23.333 0 6.193 3.88 11.404 7.3 16.007.587.787 1.167 1.566 1.721 2.342 1.065 1.485 1.788 3.139 2.211 5.052.753 3.395 3.608 5.766 6.945 5.766h10.313c3.337 0 6.192-2.368 6.945-5.766.423-1.914 1.146-3.564 2.21-5.052.555-.776 1.135-1.555 1.721-2.342 3.422-4.603 7.3-9.815 7.3-16.007C58.333 26.468 47.866 16 35 16zm13.69 37.599c-.598.802-1.187 1.595-1.753 2.386-1.28 1.79-2.184 3.847-2.686 6.119-.452 2.05-2.138 3.48-4.095 3.48H29.843c-1.957 0-3.643-1.43-4.095-3.48-.502-2.275-1.409-4.331-2.687-6.12A171.202 171.202 0 0021.31 53.6C18 49.154 14.583 44.56 14.583 39.333c0-11.255 9.158-20.416 20.416-20.416 11.259 0 20.417 9.161 20.417 20.416 0 5.227-3.418 9.82-6.726 14.266zM42.292 71.416H27.708a1.459 1.459 0 000 2.917h14.584a1.459 1.459 0 000-2.916zM42.292 77.25H27.708a1.459 1.459 0 000 2.917h14.584a1.459 1.459 0 000-2.917zM39.374 83.084h-8.75a1.459 1.459 0 000 2.916h8.75a1.459 1.459 0 000-2.916z"/></g><defs><clipPath id="clip0"><path fill="#fff" transform="translate(0 16)" d="M0 0h70v70H0z"/></clipPath></defs></svg>
